X: 1
T: Northern, The
M: 4/4
L: 1/8
R: reel
K: Dmaj
|:~d2 dA BAFA|BAGF EDCB,|A,B,CD EFGA|BABc ed (3ddd|
~d2 dA BAFA|BAGF EDCB,|A,B,CD EFGA|cABc d2d2:|
|:(3eee ed cdef|(3ggg ed cdef|gfaf gfed|edfd ~e2 cd|
(3eee ed cdef|~g2 ed cdef|gfaf gfed|cABc d2d2:|
